other/bubblelevel.svg

<?xml version="1.0" encoding="UTF-8" standalone="no"?>
<svg
   id="SVGRoot"
   version="1.1"
   viewBox="0 0 48 48"
   height="48px"
   width="48px"
   sodipodi:docname="bubble.svg"
   inkscape:version="1.1 (c4e8f9ed74, 2021-05-24)"
   enable-background="new"
   inkscape:export-filename="/home/jd0g/Documents/Computer/Icons for Frost/working/fritter.png"
   inkscape:export-xdpi="96"
   inkscape:export-ydpi="96"
   xmlns:inkscape="http://www.inkscape.org/namespaces/inkscape"
   xmlns:sodipodi="http://sodipodi.sourceforge.net/DTD/sodipodi-0.dtd"
   xmlns="http://www.w3.org/2000/svg"
   xmlns:svg="http://www.w3.org/2000/svg"
   xmlns:rdf="http://www.w3.org/1999/02/22-rdf-syntax-ns#"
   xmlns:cc="http://creativecommons.org/ns#"
   xmlns:dc="http://purl.org/dc/elements/1.1/">
  <defs
     id="defs3732">
    <style
       id="style822">.a{fill:#3396cd;}.b{fill:#fff;}</style>
  </defs>
  <sodipodi:namedview
     id="base"
     pagecolor="#000000"
     bordercolor="#666666"
     borderopacity="1.0"
     inkscape:pageopacity="0"
     inkscape:pageshadow="2"
     inkscape:zoom="5.3333335"
     inkscape:cx="-53.156248"
     inkscape:cy="38.999999"
     inkscape:document-units="px"
     inkscape:current-layer="layer1"
     showgrid="false"
     inkscape:window-width="1920"
     inkscape:window-height="1000"
     inkscape:window-x="891"
     inkscape:window-y="2204"
     inkscape:window-maximized="1"
     inkscape:grid-bbox="true"
     inkscape:document-rotation="0"
     inkscape:pagecheckerboard="0" />
  <metadata
     id="metadata3735">
    <rdf:RDF>
      <cc:Work
         rdf:about="">
        <dc:format>image/svg+xml</dc:format>
        <dc:type
           rdf:resource="http://purl.org/dc/dcmitype/StillImage" />
      </cc:Work>
    </rdf:RDF>
  </metadata>
  <g
     inkscape:groupmode="layer"
     id="layer1"
     inkscape:label="Layer 3"
     style="display:inline">
    <path
       id="rect333"
       style="fill:#ffffff;fill-rule:evenodd;stroke-width:0.905279"
       d="M 16.333984 18.447266 L 16.333984 29.552734 L 31.666016 29.552734 L 31.666016 18.447266 L 30.880859 18.447266 A 7.0300026 5.2449417 0 0 1 31.095703 19.726562 A 7.0300026 5.2449417 0 0 1 24.064453 24.970703 A 7.0300026 5.2449417 0 0 1 17.035156 19.726562 A 7.0300026 5.2449417 0 0 1 17.263672 18.447266 L 16.333984 18.447266 z " />
    <rect
       style="display:inline;fill:#ffffff;fill-rule:evenodd;stroke-width:0.905279"
       id="rect333-6"
       width="15.333142"
       height="11.10494"
       x="32.167"
       y="18.447531" />
    <rect
       style="display:inline;fill:#ffffff;fill-rule:evenodd;stroke-width:0.905279"
       id="rect333-7"
       width="15.333142"
       height="11.10494"
       x="0.5"
       y="18.447531" />
  </g>
</svg>

<?xml version="1.0" encoding="UTF-8"?>
<svg enable-background="new" version="1.1" viewBox="0 0 48 48" xmlns="http://www.w3.org/2000/svg">
    <defs>
        <style>.a{fill:#3396cd;}.b{fill:#fff;}</style>
    </defs>
    <g fill="#fff" fill-rule="evenodd" stroke-width=".90528">
        <path d="m16.334 18.447v11.105h15.332v-11.105h-0.78516a7.03 5.2449 0 0 1 0.21484 1.2793 7.03 5.2449 0 0 1-7.0312 5.2441 7.03 5.2449 0 0 1-7.0293-5.2441 7.03 5.2449 0 0 1 0.22852-1.2793h-0.92969z"/>
        <rect x="32.167" y="18.448" width="15.333" height="11.105"/>
        <rect x=".5" y="18.448" width="15.333" height="11.105"/>
    </g>
</svg>
